src/assets/svg/additional/0-blue-logo.svg

<svg width="42" height="41" viewBox="0 0 42 41" fill="none" xmlns="http://www.w3.org/2000/svg">
<path d="M15.3004 16.5752L18.0607 9.61344L25.4701 8.52307L30.1186 14.3945L27.3585 21.3562L19.9492 22.4465L15.3004 16.5752Z" fill="#134996"/>
<path d="M5.86887 24.1157L8.62919 17.154L16.0386 16.0636L20.6872 21.935L17.9271 28.8967L10.5177 29.987L5.86887 24.1157Z" fill="#134996"/>
<path d="M17.0088 28.5294L19.7691 21.5677L27.1785 20.4774L31.8271 26.3488L29.067 33.3105L21.6577 34.4009L17.0088 28.5294Z" fill="#134996"/>
</svg>

<svg xmlns="http://www.w3.org/2000/svg" width="42" height="41" fill="none"><path fill="#134996" d="m15.3 16.575 2.76-6.962 7.41-1.09 4.649 5.872-2.76 6.961-7.41 1.09-4.649-5.87Z"/><path fill="#134996" d="m5.869 24.116 2.76-6.962 7.41-1.09 4.648 5.871-2.76 6.962-7.41 1.09-4.648-5.871Z"/><path fill="#134996" d="m17.009 28.53 2.76-6.962 7.41-1.09 4.648 5.87-2.76 6.962-7.41 1.09-4.648-5.87Z"/></svg>
